!!!OTL: Erscheinung in der Brautnacht (55a), S. 176
!!!id: T0200V
**kern
*clefG2
*k[f#]
*G:
{8d
8g
=1
4.g
8g
8g
8g
8b
8g
=2
8g
8f#
4f#}
4r
=3
{8d
8f#
=4
4.a
8b
8cc
8a
8f#
8d
=5
4b
4g}
4r
=6
{8g
16g
16ee
=7
4.ee
8dd
8cc
8b
8a
8g
=8
8f#
8a
4dd}
4r
=9
{8a
8cc
=10
8b
8dd
8g
8b
8a
8ee
8dd
8f#
=11
4a
4g}
4r
=12
{8g
16g
16ee
=13
4.ee
8dd
8cc
8b
8a
8g
=14
8f#
8a
4cc}
4r
=15
{8a
8dd
=16
8g
8g
8g
8ee
8g
8dd
4f#
=17
4a
4g}
4r
==
*-
!!!minrhy: 16
!!!meters: 4/4 ]  ZZ[6
!!!cut: Erscheinung in der Brautnacht (55a), S. 176
!!!reg: Luxemburg
!!!trd: Singendes Volk, Esch-Alzette 1937 posth.
!!!rhy1: X_X_  X__.X_X_X_X_X_  X_X_X__0_   (x2)
!!!rhy2: X_X_  X__.X_X_X_X_X_  X__X__0_
!!!key: T0200V 16  G 4/4 ]  ZZ[6
!!!mod: HEPTATONIK IONISCH]  AMBITUS[9
!!!kad: -715141
!!!akz: 111_243_64-7_322_64-7_112_
!!!fot: 'a__b__c__d__cv_aw_
!!!for: 'a__b__av_c__av_d__
!!!fok: '^a_^a_~a_^d_~a_^d_
!! PHRAS[AUFTAKTIG]
!!!fkt: Liebeslieder
!!!bem1: abweichender Schlu&szlig; von 199 aus Blascheid;
!!!bem2: Merzig, Anton Koob, Liederheft, 1861;
!!!bem3: (55c)- Blascheid, fff J. Hitting
!! THILL, Mathias:
!! PR[15] 2K[0] 2G[0] 3K[3] 3G[8] 4A[13] 4Ü[0] 5A[5] 6K[0] 6G[3]
!! 7K[0] 7G[0] 8A[0] MEHR[0] SI[30] ABS[40] SR[0] SP[30]
!! ST[10] 2k[8] 2g[33] 3k[3] 3g[3] 4d[8] 4ü[0] 5d[3] 6k[0] 6g[0]
!! 7k[0] 7g[0] 8d[0] mehr[0] si[55] dm[-25] sr[40] sp[15]
!! 1F[18] 2F[40] 3F[24] 4F[2] LF[0] 2P[13] 3P[2] 4P[0] TRI[0] DF[6] AB[45]
!! TF[0] U3K[0] U3[2] U4[5] U4Ü[0] U5[15] U6K[0] U6[10] U7K[0] U7[5]
!! N1[24] N2K[0] N2[12] N3K[0] N3[15] N4[5] N4Ü[0] N5[2] N6K[0] N6[5]
!!!n7k: 0] N7[0] O1[0] O2K[0] O2[0] O3K[0] O3[0] HÖ[0
!!!RNB: symbol: &szlig; = sz ligature (UTF-8: ÃŸ)
